ix/grid-lock_bulk.svg

<svg viewBox="0 0 24 24" fill="none" xmlns="http://www.w3.org/2000/svg" height="1em" width="1em">
  <path d="M21.5298 17.31V17.15C21.5298 15.22 20.5498 14.25 18.6298 14.25C16.7098 14.25 15.7298 15.23 15.7298 17.15V17.31C14.6798 17.57 14.2598 18.29 14.2598 19.73V20.47C14.2598 22.32 14.9498 23 16.7898 23H20.4698C22.3198 23 22.9998 22.31 22.9998 20.47V19.73C22.9998 18.3 22.5798 17.57 21.5298 17.31ZM18.6198 15.63C19.9098 15.63 20.1398 16.12 20.1398 17.15V17.2H17.0998V17.15C17.0998 16.12 17.3298 15.63 18.6198 15.63Z" fill="#292D32"/>
  <path d="M8.38971 2.16992V8.61993H1.92969V7.93994C1.92969 4.32994 4.0797 2.17993 7.6897 2.17993H8.38971V2.16992Z" fill="#292D32"/>
  <path d="M21.7698 7.93018C21.7698 8.31018 21.4598 8.61017 21.0898 8.61017H15.3398V2.16016H16.0099C19.1899 2.17016 21.7698 4.75018 21.7698 7.93018Z" fill="#292D32"/>
  <path d="M8.38947 15.5503V21.3103C8.38947 21.6903 8.07944 21.9903 7.70944 21.9903H7.69946C4.51946 21.9903 1.93945 19.4103 1.93945 16.2303V15.5503H8.38947Z" fill="#292D32"/>
  <path opacity="0.4" d="M8.39944 8.61035H1.93945V15.5504H8.39944V8.61035Z" fill="#292D32"/>
  <path d="M15.3306 8.61035V14.5504C15.3306 15.1004 14.8806 15.5504 14.3306 15.5504H8.39062V8.61035H15.3306Z" fill="#292D32"/>
  <path opacity="0.4" d="M15.3306 2.16992H8.39062V8.61993H15.3306V2.16992Z" fill="#292D32"/>
</svg>

<svg viewBox="0 0 24 24" fill="none" xmlns="http://www.w3.org/2000/svg" height="1em" width="1em">
  <path d="M21.53 17.31v-.16c0-1.93-.98-2.9-2.9-2.9s-2.9.98-2.9 2.9v.16c-1.05.26-1.47.98-1.47 2.42v.74c0 1.85.69 2.53 2.53 2.53h3.68c1.85 0 2.53-.69 2.53-2.53v-.74c0-1.43-.42-2.16-1.47-2.42Zm-2.91-1.68c1.29 0 1.52.49 1.52 1.52v.05H17.1v-.05c0-1.03.23-1.52 1.52-1.52ZM8.39 2.17v6.45H1.93v-.68c0-3.61 2.15-5.76 5.76-5.76h.7v-.01Zm13.38 5.76c0 .38-.31.68-.68.68h-5.75V2.16h.67c3.18.01 5.76 2.59 5.76 5.77ZM8.39 15.55v5.76c0 .38-.31.68-.68.68H7.7c-3.18 0-5.76-2.58-5.76-5.76v-.68h6.45Z" fill="#292D32"/>
  <path opacity=".4" d="M8.4 8.61H1.94v6.94H8.4V8.61Z" fill="#292D32"/>
  <path d="M15.33 8.61v5.94c0 .55-.45 1-1 1H8.39V8.61h6.94Z" fill="#292D32"/>
  <path opacity=".4" d="M15.33 2.17H8.39v6.45h6.94V2.17Z" fill="#292D32"/>
</svg>
